WorldWind/resources/milstd2525/metoc/was-ph----p----.svg

<?xml version="1.0" encoding="UTF-8" standalone="no"?>
<!-- SVG content generated using Symbology Configuration Management System (SCMS) -->

<!-- Systematic Software Engineering Ltd. - www.systematic.co.uk - do not remove  -->

<svg
    xmlns:dc="http://purl.org/dc/elements/1.1/"
    xmlns:cc="http://creativecommons.org/ns#"
    xmlns:rdf="http://www.w3.org/1999/02/22-rdf-syntax-ns#"
    xmlns:svg="http://www.w3.org/2000/svg"
    xmlns="http://www.w3.org/2000/svg"
    xmlns:sodipodi="http://sodipodi.sourceforge.net/DTD/sodipodi-0.dtd"
    xmlns:inkscape="http://www.inkscape.org/namespaces/inkscape"
    id="WAS-PH----P----"
    width="276.25"
    height="360"
    viewBox="0 0 276.25 360"
    version="1.1"
    inkscape:version="0.48.2 r9819"
    sodipodi:docname="was-ph----p----.svg">
    <metadata
        id="metadata14">
        <rdf:RDF>
            <cc:Work
                rdf:about="">
                <dc:format>image/svg+xml</dc:format>
                <dc:type
                    rdf:resource="http://purl.org/dc/dcmitype/StillImage"/>
            </cc:Work>
        </rdf:RDF>
    </metadata>
    <defs
        id="defs12"/>
    <sodipodi:namedview
        pagecolor="#ffffff"
        bordercolor="#666666"
        borderopacity="1"
        objecttolerance="10"
        gridtolerance="10"
        guidetolerance="10"
        inkscape:pageopacity="0"
        inkscape:pageshadow="2"
        inkscape:window-width="640"
        inkscape:window-height="480"
        id="namedview10"
        showgrid="false"
        inkscape:zoom="0.59"
        inkscape:cx="140"
        inkscape:cy="180"
        inkscape:window-x="0"
        inkscape:window-y="0"
        inkscape:window-maximized="0"
        inkscape:current-layer="WAS-PH----P----"/>
    <g
        id="g3"
        transform="translate(-60,-20)">
        <svg
            viewBox="0 0 400 400"
            id="_0.WAS-PH----P----"
            width="400"
            height="400"
            version="1.1"
            inkscape:version="0.48.2 r9819">
            <g
                transform="matrix(10,0,0,10,60,20)"
                style="fill:#0000ff"
                id="g6">
                <path
                    d="M 8.875,20.375 8.875,36 0,36 0,0 l 8.875,0 0,14 9.875,0 0,-14 8.875,0 0,36 -8.875,0 0,-15.625 z"
                    id="path8"
                    inkscape:connector-curvature="0"/>
            </g>
        </svg>
    </g>
</svg>

<?xml version="1.0"?>
<!DOCTYPE svg PUBLIC "-//W3C//DTD SVG 1.1//EN" "http://www.w3.org/Graphics/SVG/1.1/DTD/svg11.dtd" >
<!-- SVG content generated using Symbology Configuration Management System (SCMS) -->
<!-- Systematic Software Engineering Ltd. - www.systematic.co.uk - do not remove  -->
<svg id="WAS-PH----P----" width="400px" height="400px" viewBox="0 0 400 400">
    <g>
        <svg viewBox="0 0 400 400" id="_0.WAS-PH----P----" width="400px" height="400px">
            <g transform="translate(60 20) scale(10 10)" style="fill:rgb(0,0,255)">
                <path
                    d="M8.875 20.375 L8.875 36 L0 36 L0 0 L8.875 0 L8.875 14 L18.75 14 L18.75 0 L27.625     0 L27.625 36 L18.75 36 L18.75 20.375 z"></path>
            </g>
        </svg>

    </g>
</svg>
